X:3108
T:Bingsjö schottis
Q:80
R:Schottis
O:Bingsjö, Dalarna
G:Fiol
S:Nils Agermark
M:4/4
L:1/8
K:D
.Aa f/g/f/e/ .dG B2|A/c/e/g/ e/c/A/c/ d/c/d/e/ fd|.Aa f/g/f/e/ .dG B2|1A/c/e/g/ e/c/A/c/ .d.d d2:|2A/c/e/g/ e/c/A/c/ .d.d d|
K:A
|:c/d/|e/c/A/c/ e/a/g/f/ e/f/e/d/ cf/e/|d/e/d/c/ Be/d/ c/d/c/B/ AA/c/|e/c/A/c/ e/a/g/f/ e/f/e/d/ cf/e/|1d/c/B/c/ d/e/f/g/ .a.a a:|2d/c/B/c/ d/e/f/g/ .a.a a2|
(:musicend:)
(:music:)
